X: 66
T: Motet cycle Quam pulchra es &mdash; 7. Mater patris filia
C: Gaspar van Weerbeke
%%abc-version 2.0
%%abcx-abcm2ps-target-version 5.9.1 (29 Sep 2008)
%%abc-creator hum2abc beta
%%abcx-conversion-date 2022/03/06 13:05:54
%%abc-copyright Copyright 2021, Pavanello, Agnese
%%abc-edited-by Sapp, Craig Stuart
%%abc-edited-by Wissmann, Rolf
%%humdrum-veritas 355039011
%%humdrum-veritas-data 4092508634
%%linebreak <none>
%%barnumbers 0
L: 1/4
M: C
N: Derived from Gas0302g-Quam_pulchra_es-Mater_patris_filia.krn
%%staves [1 2 3 4]
V: 1 clef=treble
V: 2 clef=treble-8
V: 3 clef=treble-8
V: 4 clef=bass
K: F
[V:1] z8 | 
[V:2] z8 | 
[V:3] z8 | 
[V:4] G,8 | 
[V:1] z4G4- | 
[V:2] z8 | 
[V:3] z8 | 
[V:4] A,4G,2B,2- | 
[V:1] G4A4 | 
[V:2] z8 | 
[V:3] z8 | 
[V:4] B,2A,G,F,4 | 
[V:1] G2B4AG | 
[V:2] z8 | 
[V:3] G8 | 
[V:4] G,4_E,4 | 
[V:1] F4G4 | 
[V:2] z4g4- | 
[V:3] A4G2B2- | 
[V:4] D,4_E,2G,2- | 
[V:1] z4d4 | 
[V:2] g4a4 | 
[V:3] B2AGF4 | 
[V:4] G,F,_E,2D,4 | 
[V:1] B2d4cB | 
[V:2] g2b4ag | 
[V:3] G8 | 
[V:4] z8 | 
[V:1] A4G2A2 | 
[V:2] f4g2c2 | 
[V:3] d4e2f2- | 
[V:4] D,4G,2F,2 | 
[V:1] F2B4A2- | 
[V:2] d4e2f2- | 
[V:3] f2d2B2c2- | 
[V:4] D,2G,4F,2- | 
[V:1] A2G4^F2 | 
[V:2] f2d6 | 
[V:3] c2B2A4 | 
[V:4] F,2G,2D,4 | 
[V:1] G4z4 | 
[V:2] B2>c2d2_e2 | 
[V:3] G8 | 
[V:4] z8 | 
[V:1] G4F4 | 
[V:2] d8 | 
[V:3] B4A4 | 
[V:4] G,4D,4 | 
[V:1] G6F2 | 
[V:2] d6d2 | 
[V:3] B6A2 | 
[V:4] G,6D,2 | 
[V:1] G2A2^F4 | 
[V:2] _e4d2d2- | 
[V:3] B2c2A4 | 
[V:4] G,2C,2D,4 | 
[V:1] G6A2 | 
[V:2] d2d2e2g2- | 
[V:3] B8 | 
[V:4] G,8 | 
[V:1] B4B4 | 
[V:2] gfede4 | 
[V:3] B4B4 | 
[V:4] G,4G,4 | 
[V:1] A6B2 | 
[V:2] f2f4ed | 
[V:3] c8 | 
[V:4] F,6G,2 | 
[V:1] c6A2 | 
[V:2] c2f6 | 
[V:3] c4c4 | 
[V:4] A,4A,4 | 
[V:1] B4G4 | 
[V:2] gfedc4 | 
[V:3] d4e4 | 
[V:4] G,4E,4 | 
[V:1] A4B4 | 
[V:2] d4B4 | 
[V:3] f4d3e | 
[V:4] D,4G,4 | 
[V:1] A2>B2c2d2 | 
[V:2] c4A2a2- | 
[V:3] f2>e2c2f2 | 
[V:4] F,2>G,2A,2D,2 | 
[V:1] c2d4^c2 | 
[V:2] a2g2a4 | 
[V:3] e2d2e4 | 
[V:4] A,2B,2A,4 | 
[V:1] d6e2 | 
[V:2] f4z4 | 
[V:3] d8 | 
[V:4] D,8 | 
[V:1] f2>e2c2f2 | 
[V:2] z8 | 
[V:3] d2>e2f2d2 | 
[V:4] z8 | 
[V:1] e2d4e2- | 
[V:2] z8 | 
[V:3] c2f4g2 | 
[V:4] z8 | 
[V:1] edc4=B2 | 
[V:2] z8 | 
[V:3] e2f2d4 | 
[V:4] z8 | 
[V:1] c4z4 | 
[V:2] z8 | 
[V:3] c8 | 
[V:4] z8 | 
[V:1] c4c4 | 
[V:2] _e4_e4 | 
[V:3] z8 | 
[V:4] z8 | 
[V:1] B4A4 | 
[V:2] d6c2 | 
[V:3] z8 | 
[V:4] z8 | 
[V:1] B2A4G2- | 
[V:2] B2c4B2 | 
[V:3] z8 | 
[V:4] z8 | 
[V:1] G2^F2G4 | 
[V:2] A4G4- | 
[V:3] z8 | 
[V:4] z8 | 
[V:1] z8 | 
[V:2] G2B4c2- | 
[V:3] z8 | 
[V:4] G,6E,2 | 
[V:1] z8 | 
[V:2] c2d2>e2f2- | 
[V:3] z8 | 
[V:4] F,4G,2A,2- | 
[V:1] z8 | 
[V:2] f2ed^c4 | 
[V:3] z8 | 
[V:4] A,2G,F,E,4 | 
[V:1] d6cB | 
[V:2] d4z4 | 
[V:3] f8 | 
[V:4] D,8 | 
[V:1] cBAGF2B2- | 
[V:2] z8 | 
[V:3] e4d4 | 
[V:4] z8 | 
[V:1] B2AGAGFE | 
[V:2] z8 | 
[V:3] d4c4 | 
[V:4] z8 | 
[V:1] D2G2F2A2- | 
[V:2] z8 | 
[V:3] B4A2c2- | 
[V:4] z8 | 
[V:1] A2G4F2 | 
[V:2] z8 | 
[V:3] c2B2A4 | 
[V:4] z4D,4 | 
[V:1] GFEDE2F2- | 
[V:2] z8 | 
[V:3] G4z4 | 
[V:4] E,2G,4A,2 | 
[V:1] F2D4^C2 | 
[V:2] z8 | 
[V:3] z8 | 
[V:4] F,2G,2E,4 | 
[V:1] D4z4 | 
[V:2] d2>c2d2e2- | 
[V:3] z8 | 
[V:4] D,2G,2>F,2G,2 | 
[V:1] z8 | 
[V:2] ede2f3e | 
[V:3] z8 | 
[V:4] A,2>G,2A,2B,2- | 
[V:1] z8 | 
[V:2] f2g2>f2g2 | 
[V:3] z8 | 
[V:4] B,A,B,2C3B, | 
[V:1] z8 | 
[V:2] a2>g2a2b2- | 
[V:3] z8 | 
[V:4] C2D2>C2D2 | 
[V:1] z8 | 
[V:2] bag4^f2 | 
[V:3] z4c4 | 
[V:4] B,2C2A,4 | 
[V:1] z4c4 | 
[V:2] g4z4 | 
[V:3] B2d2c2BA | 
[V:4] G,4z4 | 
[V:1] B2d2c2BA | 
[V:2] z8 | 
[V:3] G2B2A2c2 | 
[V:4] z8 | 
[V:1] G2B2A2c2 | 
[V:2] z8 | 
[V:3] B2AGF4 | 
[V:4] z8 | 
[V:1] B2AGF4 | 
[V:2] z4d4 | 
[V:3] G2B2A4 | 
[V:4] z4D,4 | 
[V:1] GABcd2_e2- | 
[V:2] B4G2g2 | 
[V:3] G2>A2B2c2- | 
[V:4] _E,2G,4E,2 | 
[V:1] e2d4^c2 | 
[V:2] f2a6 | 
[V:3] c2d2e4 | 
[V:4] F,2D,2A,4 | 
[V:1] d4z4 | 
[V:2] f4g4 | 
[V:3] d8 | 
[V:4] B,4G,4 | 
[V:1] d4f4 | 
[V:2] f6f2 | 
[V:3] d4d4 | 
[V:4] B,6B,2 | 
[V:1] d2B4d2- | 
[V:2] f4f2f2- | 
[V:3] d2d4d2 | 
[V:4] B,4B,2B,2 | 
[V:1] d2cBA4 | 
[V:2] f2f2f4 | 
[V:3] d2d2c4- | 
[V:4] B,2B,2F,4- | 
[V:1] F2A2>B2c2- | 
[V:2] f4f4 | 
[V:3] c4c4 | 
[V:4] F,4F,4 | 
[V:1] cBAGA4 | 
[V:2] f2f4f2 | 
[V:3] c2c4c2 | 
[V:4] F,2F,4F,2 | 
[V:1] B6A2 | 
[V:2] d8 | 
[V:3] B4B4- | 
[V:4] G,6G,2- | 
[V:1] G4F4 | 
[V:2] B4A4 | 
[V:3] B2c2d4 | 
[V:4] G,2G,2D,4 | 
[V:1] G6_E2 | 
[V:2] G4c4 | 
[V:3] B4G4 | 
[V:4] _E,8 | 
[V:1] F4G2A2- | 
[V:2] d4e2f2- | 
[V:3] A4B2c2- | 
[V:4] D,4G,2F,2- | 
[V:1] A2G4^F2 | 
[V:2] f_ec2d4 | 
[V:3] cBG2A4 | 
[V:4] F,2_E,2D,4 | 
[V:1] G4z4 | 
[V:2] B2>c2d2_e2 | 
[V:3] G8 | 
[V:4] z8 | 
[V:1] B4B2A2 | 
[V:2] d2g4f2 | 
[V:3] z8 | 
[V:4] G,4G,2D,2 | 
[V:1] G4F4 | 
[V:2] _e4z2f2 | 
[V:3] B4B2A2 | 
[V:4] _E,4D,4 | 
[V:1] B4A4 | 
[V:2] g4a4 | 
[V:3] G4F4 | 
[V:4] _E,4F,4 | 
[V:1] d4c2B2 | 
[V:2] d2g2c2f2- | 
[V:3] B4A2d2 | 
[V:4] G,4A,2B,2 | 
[V:1] A2B4A2 | 
[V:2] f2e2f4 | 
[V:3] c2B2c4 | 
[V:4] F,2G,2F,4 | 
[V:1] B4d4 | 
[V:2] d4f4 | 
[V:3] B4z4 | 
[V:4] z4D,4 | 
[V:1] d6c2 | 
[V:2] f2>g2a4 | 
[V:3] z4d4 | 
[V:4] D,2>E,2F,4 | 
[V:1] B4A4 | 
[V:2] g4f4 | 
[V:3] d6c2 | 
[V:4] G,4D,2F,2 | 
[V:1] G4F2G2- | 
[V:2] _e4d2_e2- | 
[V:3] B4A2B2 | 
[V:4] G,2_E,2F,2_E,2- | 
[V:1] G2F4E2 | 
[V:2] e2c6 | 
[V:3] c2A2G4 | 
[V:4] E,2F,2C,4 | 
[V:1] F4f4 | 
[V:2] A2>B2c4 | 
[V:3] F8 | 
[V:4] C4A,4 | 
[V:1] f6e2 | 
[V:2] z4c4 | 
[V:3] z4f4 | 
[V:4] F,2>G,2A,4 | 
[V:1] d4c4 | 
[V:2] defga4 | 
[V:3] f6e2 | 
[V:4] B,4F,2A,2 | 
[V:1] B4A2B2- | 
[V:2] g4f2g2- | 
[V:3] d4c2B2 | 
[V:4] B,2G,2A,2G,2- | 
[V:1] B2G4^F2 | 
[V:2] g2c2d4 | 
[V:3] G4A4 | 
[V:4] G,2E,2D,4 | 
[V:1] G8 |]  
[V:2] d8 |]  
[V:3] G8 |]  
[V:4] G,8 |]  


